!!!!SEGMENT: Jos/Jos2514-Vultum_tuum_deprecabuntur.krn
!!!COM: Josquin des Prez
!!!CDT: ~1450-1521/08/27
!!!OTL@@LAT: Vultum tuum deprecabuntur [7 sections]
!!!OTL2@@LAT: Sancta dei genitrix
!!!OTL3@@LAT: O intemerata virgo
!!!OTL4@@LAT: O Maria
!!!OTL5@@LAT: Mente tota tibi supplicamus
!!!OTL6@@LAT: Ora pro nobis
!!!OTL7@@LAT: Christi, fili dei
!!!AGN: Motet; Motet cycle
!!!SCT: NJE 25.14
!!!SCA: New Josquin Edition 25.14
!!!jrpid: Jos2514
!!!voices: 4
**kern	**text	**kern	**text	**kern	**text	**text	**kern	**text
*staff4	*	*staff3	*	*staff2	*	*	*staff1	*
*Ivox	*	*Ivox	*	*Ivox	*	*	*Ivox	*
*I"Bassus	*	*I"Tenor	*	*I"Altus	*	*	*I"Superius	*
*I'B	*	*I'T	*	*I'A	*	*	*I'S	*
*>[A,B,C,D,E,F]	*	*>[A,B,C,D,E,F]	*	*>[A,B,C,D,E,F]	*	*	*>[A,B,C,D,E,F]	*
*>Part1[A]	*	*>Part1[A]	*	*>Part1[A]	*	*	*>Part1[A]	*
*>Part2[B]	*	*>Part2[B]	*	*>Part2[B]	*	*	*>Part2[B]	*
*>Part3[C]	*	*>Part3[C]	*	*>Part3[C]	*	*	*>Part3[C]	*
*>Part4[D]	*	*>Part4[D]	*	*>Part4[D]	*	*	*>Part4[D]	*
*>Part5[E]	*	*>Part5[E]	*	*>Part5[E]	*	*	*>Part5[E]	*
*>Part6[F]	*	*>Part6[F]	*	*>Part6[F]	*	*	*>Part6[F]	*
*clefF4	*	*clefGv2	*	*clefGv2	*	*	*clefG2	*
*k[b-]	*	*k[b-]	*	*k[b-]	*	*	*k[b-]	*
*>A	*	*>A	*	*>A	*	*	*>A	*
*M2/1	*	*M2/1	*	*M2/1	*	*	*M2/1	*
*met(C|)	*	*met(C|)	*	*met(C|)	*	*	*met(C|)	*
!!section: Prima pars: Vultum tuum deprecabuntur
=1-	=1-	=1-	=1-	=1-	=1-	=1-	=1-	=1-
[0G	Vul-	0G	Vul-	[0d	Vul-	&	[0g	Vul-
=2	=2	=2	=2	=2	=2	=2	=2	=2
0G]	.	0B-	.	0d_	.	.	0g]	.
=3	=3	=3	=3 	=3	=3	=3	=3	=3
0D	.	1A	-tum	0d]	.	.	0f	-tum
.	.	[1d	.	.	.	.	.	.
=4	=4	=4	=4	=4	=4	=4	=4	=4
1.E-i	-tum	1d]	.	1.G	tum	.	0g	.
.	.	1c	.	.	.	.	.	.
2D\	.	.	.	2A/	.	.	.	.
=5	=5	=5	=5	=5	=5	=5	=5	=5
0BB-	.	1d	.	1.B-	.	.	1f	.
.	.	[1f	tu-	.	.	.	[1d	.
.	.	.	.	2c\	.	.	.	.
=6	=6	=6	=6	=6	=6	=6	=6	=6
1.B-	tu-	2f\]	.	1d	.	.	2d/]	.
.	.	2e\	.	.	.	.	2e/	.
.	.	2d\	.	[1d	tu-	.	1f	tu-
2A\	.	2c\	.	.	.	.	.	.
=7	=7	=7	=7	=7	=7	=7	=7	=7
1G	.	1B-	.	2d\]	.	.	1g	.
.	.	.	.	2e\	.	.	.	.
1F	.	[1c	.	1f	.	.	[1a	.
=8	=8	=8	=8	=8	=8	=8	=8	=8
0E-i	.	2c\]	.	1g	.	.	2a/]	.
.	.	2B-\	.	.	.	.	2g/	.
.	.	1G	.	1c	.	.	[1g	.
=9	=9	=9	=9	=9	=9	=9	=9	=9
0D	-um	0A	.	0d	.	.	1g]	.
.	.	.	.	.	.	.	1f#i	.
=10	=10	=10	=10	=10	=10	=10	=10	=10
1r	.	[0G	-um	0B-	um	.	[0g	-um
[1d	de-	.	.	.	.	.	.	.
=11	=11	=11	=11	=11	=11	=11	=11	=11
2d\]	.	0G]	.	1G	.	.	0g]	.
2c\	.	.	.	.	.	.	.	.
[1B-	.	.	.	[1d	de-	.	.	.
=12	=12	=12	=12	=12	=12	=12	=12	=12
2B-\]	.	0B-	de-	2d\]	.	.	0r	.
2A\	.	.	.	2c\	.	.	.	.
1G	.	.	.	1B-	-pre-	.	.	.
=13	=13	=13	=13	=13	=13	=13	=13	=13
1F	.	1c	-pre-	1A	-ca-	.	0r	.
1BB-	-pre-	[1d	-ca-	1B-	.	.	.	.
=14	=14	=14	=14	=14	=14	=14	=14	=14
0B-	-ca-	1d]	.	0G	.	.	0r	.
.	.	1B-	.	.	.	.	.	.
=15	=15	=15	=15	=15	=15	=15	=15	=15
1A	.	1c	.	1F	.	.	0r	.
[1G	-bun-	[1e-i	-bun-	[1B-	-bun-	.	.	.
=16	=16	=16	=16	=16	=16	=16	=16	=16
2G\]	.	2e-\]	.	1B-]	.	.	0r	.
2F\	.	2d\	.	.	.	.	.	.
1D	-tur,	[1d	-tur,	1A	.	.	.	.
=17	=17	=17	=17	=17	=17	=17	=17	=17
0G	de-	1d]	.	1B-	-tur,	.	0r	.
.	.	1B-	de-	1G	de-	.	.	.
=18	=18	=18	=18	=18	=18	=18	=18	=18
1F	.	1c	-pre-	1A	-pre-	.	0r	.
1BB-	-pre-	[1d	-ca-	1B-	-ca-	.	.	.
=19	=19	=19	=19	=19	=19	=19	=19	=19
0B-	-ca-	1d]	.	1G	.	.	0r	.
.	.	1B-	.	1d	.	.	.	.
=20	=20	=20	=20	=20	=20	=20	=20	=20
1A	.	1c	.	1c	.	.	0r	.
[1G	-bun-	[1e-i	-bun-	[1B-	-bun-	.	.	.
=21	=21	=21	=21	=21	=21	=21	=21	=21
2G\]	.	2e-\]	.	2B-\]	.	.	0r	.
2F\	.	2d\	.	2A/	.	.	.	.
1D	.	[1d	.	[1A	.	.	.	.
=22	=22	=22	=22	=22	=22	=22	=22	=22
0E-i	.	1d]	.	1A]	.	.	0r	.
.	.	1c	.	1G	.	.	.	.
=23	=23	=23	=23	=23	=23	=23	=23	=23
[0D	-tur	[0d	-tur	1A	-tur,	.	1r	.
.	.	.	.	1F	.	.	[1a	de-
=24	=24	=24	=24	=24	=24	=24	=24	=24
0D]	.	0d]	.	1.f	de-	.	1a]	.
.	.	.	.	.	.	.	1f	.
.	.	.	.	4e\	.	.	.	.
.	.	.	.	4d\	.	.	.	.
=25	=25	=25	=25	=25	=25	=25	=25	=25
0r	.	0r	.	1e	.	.	1g	-pre-
.	.	.	.	1d	-pre-	.	[1b-	-ca-
=26	=26	=26	=26	=26	=26	=26	=26	=26
0r	.	0r	.	1.g	-ca-	.	1b-]	.
.	.	.	.	.	.	.	1g	.
.	.	.	.	4f\	.	.	.	.
.	.	.	.	4e\	.	.	.	.
=27	=27	=27	=27	=27	=27	=27	=27	=27
0r	.	0r	.	1f	-bun-	.	1a	-bun-
.	.	.	.	[1g	-tur	.	1b-	.
=28	=28	=28	=28	=28	=28	=28	=28	=28
0C	om-	0e-i	om-	1g]	.	.	0g	-tur
.	.	.	.	1c	om-	.	.	.
=29	=29	=29	=29	=29	=29	=29	=29	=29
[0G	-nes,	0d	-nes,	1B-	-nes,	.	1r	.
.	.	.	.	1G	.	.	[1b-	om-
=30	=30	=30	=30	=30	=30	=30	=30	=30
0G]	.	1d	om-	1.d	om-	.	1b-]	.
.	.	1B-	.	.	.	.	1g	.
.	.	.	.	2e\	.	.	.	.
=31	=31	=31	=31	=31	=31	=31	=31	=31
1F	om-	1c	.	1f	.	.	1a	.
1BB-	.	1d	.	1d	.	.	1b-	.
=32	=32	=32	=32	=32	=32	=32	=32	=32
0C	-nes	0e-i	-nes	0c	-nes	.	0g	-nes
=33	=33	=33	=33	=33	=33	=33	=33	=33
0G	.	0d	.	1.B-	di-	.	1r	.
.	.	.	.	.	.	.	[1b-	di-
.	.	.	.	2A/	.	.	.	.
=34	=34	=34	=34	=34	=34	=34	=34	=34
1r	.	0e-i	di-	2.G/	.	.	2b-\]	.
.	.	.	.	.	.	.	2a/	.
.	.	.	.	4F/	.	.	.	.
1C	di-	.	.	1c	.	.	1g	.
=35	=35	=35	=35	=35	=35	=35	=35	=35
1D	-vi-	0d	-vi-	0A	-vi-	.	1f	-vi-
1F	.	.	.	.	.	.	1a	.
=36	=36	=36	=36	=36	=36	=36	=36	=36
1E-i	-tes	1e-i	-tes	0B-	-tes	.	1g	-tes
1G	.	1d	.	.	.	.	1b-	.
=37	=37	=37	=37	=37	=37	=37	=37	=37
0F	.	1.f	ple-	0c	ple-	.	1a	ple-
.	.	.	.	.	.	.	1cc	.
.	.	2e-i\	.	.	.	.	.	.
=38	=38	=38	=38	=38	=38	=38	=38	=38
1r	.	1d	.	0f	.	.	1b-	.
1F	ple-	1c	.	.	.	.	[1a	.
=39	=39	=39	=39	=39	=39	=39	=39	=39
1G	.	1B-	.	1d	.	.	2a/]	.
.	.	.	.	.	.	.	2g/	.
1C	.	1c	.	1e-i	.	.	[1g	.
=40	=40	=40	=40	=40	=40	=40	=40	=40
0D	-bis,	0A	.	0d	.	.	1g]	.
.	.	.	.	.	.	.	1f#i	.
=41	=41	=41	=41	=41	=41	=41	=41	=41
1r	.	[0G	-bis	1B-	-bis	.	[0g	bis,
[1d	di-	.	.	1G	.	.	.	.
=42	=42	=42	=42	=42	=42	=42	=42	=42
2d\]	.	0G]	.	1.d	di-	.	0g]	.
2c\	.	.	.	.	.	.	.	.
2B-\	-vi-	.	.	.	.	.	.	.
2A\	.	.	.	2c\	.	.	.	.
=43	=43	=43	=43	=43	=43	=43	=43	=43
2G\	-tes	0r	.	2B-\	vi-	.	0r	.
2F\	.	.	.	2A/	.	.	.	.
2B-\	ple-	.	.	2G/	-tes	.	.	.
2c\	.	.	.	2F/	.	.	.	.
=44	=44	=44	=44	=44	=44	=44	=44	=44
1.d	.	0r	.	4B-\	ple-	.	0r	.
.	.	.	.	4c\	.	.	.	.
.	.	.	.	4d\	.	.	.	.
.	.	.	.	4e\	.	.	.	.
.	.	.	.	4f\	.	.	.	.
.	.	.	.	4g\	.	.	.	.
2c\	.	.	.	[2a\	.	.	.	.
=45	=45	=45	=45	=45	=45	=45	=45	=45
2B-\	.	0r	.	4a\]	.	.	0r	.
.	.	.	.	4g\	.	.	.	.
2G\	.	.	.	1g	.	.	.	.
1A	.	.	.	.	.	.	.	.
.	.	.	.	2f#i\	.	.	.	.
=46	=46	=46	=46	=46	=46	=46	=46	=46
0G	-bis.	0r	.	0g	bis.	.	0r	.
=47	=47	=47	=47	=47	=47	=47	=47	=47
*M3/1	*	*M3/1	*	*M3/1	*	*	*M3/1	*
*met(O/3)	*	*met(O/3)	*	*met(O/3)	*	*	*met(O/3)	*
1G	qui-	1g	qui-	1d	qui-	.	1b-	qui-
1G	-a	1g	-a	1d	-a	.	1b-	-a
1G	in	1g	in	1d	in	.	1b-	in
=48	=48	=48	=48	=48	=48	=48	=48	=48
0A	te	0f	te	0c	te	.	0cc	te
1A	so-	1f	so-	1c	so-	.	1a	so-
=49	=49	=49	=49	=49	=49	=49	=49	=49
0G	-la,	0g	-la,	0d	-la,	.	0b-	-la,
[1D	vir-	[1f	vir-	[1d	vir-	.	[1dd	vir-
=50	=50	=50	=50	=50	=50	=50	=50	=50
1D]	.	1f]	.	1d]	.	.	1dd]	.
0A	-gi-	0e	-gi-	0A	-gi-	.	0cc	-gi-
=51	=51	=51	=51	=51	=51	=51	=51	=51
0B-	-ne	0d	-ne	0f	-ne	.	0b-	-ne
[1F	Ma-	[1c	Ma-	[1f	Ma-	.	[1a	Ma-
=52	=52	=52	=52	=52	=52	=52	=52	=52
1F]	.	1c]	.	1f]	.	.	1a]	.
0G	-ri-	0B-	-ri-	0e	-ri-	.	0g	-ri-
=53	=53	=53	=53	=53	=53	=53	=53	=53
0.D	-a,	0A	-a,	0.d	-a,	.	0.f	-a,
.	.	1r	.	.	.	.	.	.
=54	=54	=54	=54	=54	=54	=54	=54	=54
1.F	om-	1.A	om-	0.r	.	.	0.r	.
2D\	.	2B-\	.	.	.	.	.	.
1E	-nis	1c	-nis	.	.	.	.	.
=55	=55	=55	=55	=55	=55	=55	=55	=55
0D	spes,	0d	spes	0.r	.	.	1.a	om-
.	.	.	.	.	.	.	2b-\	.
1r	.	1c	po-	.	.	.	1cc	-nis
=56	=56	=56	=56	=56	=56	=56	=56	=56
0.r	.	1B-	-si-	1.d	om-	.	0dd	spes
.	.	1G	.	.	.	.	.	.
.	.	.	.	2e\	.	.	.	.
.	.	1A	-ta	1f	-nis	.	1cc	po-
=57	=57	=57	=57	=57	=57	=57	=57	=57
0.r	.	0G	est,	0g	spes	.	1b-	-si-
.	.	.	.	.	.	.	1g	.
.	.	1r	.	1f	po-	.	1a	-ta
=58	=58	=58	=58	=58	=58	=58	=58	=58
0.r	.	0c	om-	1e	-si-	.	1.g	est,
.	.	.	.	1c	.	.	.	.
.	.	.	.	.	.	.	2a/	.
.	.	1B-	-nis	1d	-ta	.	1b-	.
=59	=59	=59	=59	=59	=59	=59	=59	=59
0.r	.	1A	spes	1.c	est,	.	0cc	om-
.	.	1F	.	.	.	.	.	.
.	.	.	.	2d\	.	.	.	.
.	.	1G	po-	1e	.	.	1b-	-nis
=60	=60	=60	=60	=60	=60	=60	=60	=60
0D	om-	1F	-si-	1f	om-	.	1a	spes
.	.	1.B-	.	1d	.	.	1f	.
1E	-nis	.	.	1G	-nis	.	1g	po-
.	.	2c\	.	.	.	.	.	.
=61	=61	=61	=61	=61	=61	=61	=61	=61
1.D	spes	1.d	.	1A	spes	.	1f	-si-
.	.	.	.	1.f	po-	.	0a	.
2E\	.	2c\	.	.	.	.	.	.
1F	po-	1A	-ta	.	.	.	.	.
.	.	.	.	2e\	.	.	.	.
=62	=62	=62	=62	=62	=62	=62	=62	=62
0G	-si-	1B-	est,	1.d	-si-	.	1g	.
.	.	0G	.	.	.	.	0b-	-ta
.	.	.	.	2B-\	.	.	.	.
1G	-ta	.	.	2.d\	-ta-	.	.	.
.	.	.	.	4e\	.	.	.	.
=63	=63	=63	=63	=63	=63	=63	=63	=63
1.F	est,	1.c	po-	0f	est,	.	1a	est,
.	.	.	.	.	.	.	1.cc	po-
2G\	.	2B-\	.	.	.	.	.	.
1A	.	2.A/	.	1F	po-	.	.	.
.	.	.	.	.	.	.	2b-\	.
.	.	4G/	.	.	.	.	.	.
=64	=64	=64	=64	=64	=64	=64	=64	=64
1D	po-	0d	.	1f	.	.	2a/	.
.	.	.	.	.	.	.	2g/	.
0G	.	.	.	1d	.	.	1.b-	-si-
.	.	1B-	.	[1e-i	-si-	.	.	.
.	.	.	.	.	.	.	2a/	.
=65	=65	=65	=65	=65	=65	=65	=65	=65
1C	-si-	1c	-si-	1e-]	.	.	0g	.
0D	-ta	0A	-ta	0d	-ta	.	.	.
.	.	.	.	.	.	.	1f#i	-ta
=66	=66	=66	=66	=66	=66	=66	=66	=66
0.Gl	est.	0.Gl	est.	0.dl	est.	.	0.gl	est.
!!LO:LB:i:g=z
=67||	=67||	=67||	=67||	=67||	=67||	=67||	=67||	=67||
*>B	*	*>B	*	*>B	*	*	*>B	*
!!section: Secunda pars: Sancta dei genitrix
!!!OMD: Secunda pars: Sancta dei genitrix
*M2/1	*	*M2/1	*	*M2/1	*	*	*M2/1	*
*met(C|)	*	*met(C|)	*	*met(C|)	*	*	*met(C|)	*
0r	.	0r	.	1.g	Sanc-	.	1.b-	Sanc-
.	.	.	.	2g\	-ta	.	2b-\	-ta
=68	=68	=68	=68	=68	=68	=68	=68	=68
0r	.	0r	.	1g	de-	.	1b-	de-
.	.	.	.	1a	-i	.	1a	-i
=69	=69	=69	=69	=69	=69	=69	=69	=69
0r	.	0r	.	1f	ge-	.	1.cc	ge-
.	.	.	.	1e	-ni-	.	.	.
.	.	.	.	.	.	.	2cc\	-ni-
=70	=70	=70	=70	=70	=70	=70	=70	=70
1.G	Sanc-	1.B-	Sanc-	1d	-trix,	.	0dd	-trix,
.	.	.	.	2G/	ge-	.	.	.
2G\	-ta	2B-\	-ta	[2d\	.	.	.	.
=71	=71	=71	=71	=71	=71	=71	=71	=71
1G	de-	1B-	de-	2d\]	.	.	0r	.
.	.	.	.	4c\	.	.	.	.
.	.	.	.	4B-\	.	.	.	.
1A	-i	1A	-i	2c\	.	.	.	.
.	.	.	.	[2A/	.	.	.	.
=72	=72	=72	=72	=72	=72	=72	=72	=72
1F	ge-	1.c	ge-	2A/]	.	.	0r	.
.	.	.	.	4G/	.	.	.	.
.	.	.	.	4F/	.	.	.	.
1E	-ni-	.	.	1G	-ni-	.	.	.
.	.	2c\	-ni-	.	.	.	.	.
=73	=73	=73	=73	=73	=73	=73	=73	=73
0D	-trix,	0d	-trix,	2A/	-trix,	.	1r	.
.	.	.	.	2B-\	.	.	.	.
.	.	.	.	2F/	.	.	1dd	vir-
.	.	.	.	[2f\	vir-	.	.	.
=74	=74	=74	=74	=74	=74	=74	=74	=74
0r	.	0r	.	2f\]	.	.	1dd	-go
.	.	.	.	2d\	-go	.	.	.
.	.	.	.	2e\	sem-	.	1cc	sem-
.	.	.	.	2f\	.	.	.	.
=75	=75	=75	=75	=75	=75	=75	=75	=75
0r	.	0r	.	2g\	-per	.	1b-	-per
.	.	.	.	2b-\	Ma-	.	.	.
.	.	.	.	4a\	-ri-	.	1cc	Ma-
.	.	.	.	4g\	.	.	.	.
.	.	.	.	4f\	.	.	.	.
.	.	.	.	4e\	.	.	.	.
=76	=76	=76	=76	=76	=76	=76	=76	=76
0r	.	0r	.	2d\	.	.	2b-\	-ri-
.	.	.	.	1g	.	.	2g/	.
.	.	.	.	.	.	.	1a	.
.	.	.	.	2f#i\	.	.	.	.
=77	=77	=77	=77	=77	=77	=77	=77	=77
1r	.	1r	.	0g	-a,	.	2.g/	.
.	.	.	.	.	.	.	4a/	.
1G	vir-	1d	vir-	.	.	.	4b-\	.
.	.	.	.	.	.	.	4cc\	.
.	.	.	.	.	.	.	[2dd\	.
=78	=78	=78	=78	=78	=78	=78	=78	=78
1B-	-go	1d	-go	2r	.	.	4dd\]	.
.	.	.	.	.	.	.	4cc\	.
.	.	.	.	2d\	vir-	.	4dd\	.
.	.	.	.	.	.	.	4b-\	.
1A	sem-	1c	sem-	2e\	-go	.	4cc\	.
.	.	.	.	.	.	.	4b-\	.
.	.	.	.	2f\	sem-	.	4cc\	.
.	.	.	.	.	.	.	4a/	.
=79	=79	=79	=79	=79	=79	=79	=79	=79
1G	-per	1B-	-per	1g	-per	.	4b-\	.
.	.	.	.	.	.	.	4a/	.
.	.	.	.	.	.	.	4b-\	.
.	.	.	.	.	.	.	4g/	.
1F	Ma-	1c	Ma-	2r	.	.	4a/	.
.	.	.	.	.	.	.	4g/	.
.	.	.	.	2A/	Ma-	.	4f/	.
.	.	.	.	.	.	.	4e/	.
=80	=80	=80	=80	=80	=80	=80	=80	=80
2G\	-ri-	2B-\	-ri-	2B-\	-ri-	.	2d/	.
2E\	.	2G/	.	2c\	.	.	1g	.
1D	.	1A	.	1d	.	.	.	.
.	.	.	.	.	.	.	2f#i/	.
=81	=81	=81	=81	=81	=81	=81	=81	=81
0G	-a,	[0G	-a,	0B-	-a,	.	[0g	-a,
=82	=82	=82	=82	=82	=82	=82	=82	=82
1r	.	0G]	.	1r	.	.	0g]	.
1G	de	.	.	1d	de	.	.	.
=83	=83	=83	=83	=83	=83	=83	=83	=83
1.d	cu-	0r	.	1.f	cu-	.	0r	.
2c\	-jus	.	.	2e\	-jus	.	.	.
=84	=84	=84	=84	=84	=84	=84	=84	=84
1B-	u-	0r	.	1d	u-	.	0r	.
1A	-te-	.	.	1c	-te-	.	.	.
=85	=85	=85	=85	=85	=85	=85	=85	=85
0B-	-ro	1r	.	1.B-	-ro	.	1r	.
.	.	1d	de	.	.	.	1dd	de
.	.	.	.	2c\	pro-	.	.	.
=86	=86	=86	=86	=86	=86	=86	=86	=86
0BB-	.	1.f	cu-	1d	-ces-	.	1.dd	cu-
.	.	.	.	1B-	.	.	.	.
.	.	2e\	-jus	.	.	.	2cc\	-jus
=87	=87	=87	=87	=87	=87	=87	=87	=87
1r	.	1d	u-	1.f	.	.	1b-	u-
1F	pro-	1c	-te-	.	.	.	1a	-te-
.	.	.	.	2e\	.	.	.	.
=88	=88	=88	=88	=88	=88	=88	=88	=88
1G	-ces-	1.B-	-ro	2d\	.	.	1b-	-ro
.	.	.	.	2B-\	.	.	.	.
1F	.	.	.	[1f	.	.	1cc	pro-
.	.	2A/	.	.	.	.	.	.
=89	=89	=89	=89	=89	=89	=89	=89	=89
2BB-/	.	1B-	.	2f\]	.	.	1dd	-ces-
2D\	.	.	.	2d\	.	.	.	.
1C	.	1c	pro-	1e	-sit	.	1g	-sit
=90	=90	=90	=90	=90	=90	=90	=90	=90
1BB-	-sit	1d	-ces-	2f\	sal-	.	1.b-	sal-
.	.	.	.	2.B-\	.	.	.	.
[1B-	sal-	1G	-sit	.	.	.	.	.
.	.	.	.	4c\	.	.	.	.
.	.	.	.	2d\	.	.	2a/	.
=91	=91	=91	=91	=91	=91	=91	=91	=91
2B-\]	.	1B-	sal-	2G/	.	.	1g	-va-
4A\	.	.	.	2d\	.	.	.	.
4G\	.	.	.	.	.	.	.	.
2A\	-va-	2A/	-va-	2c\	-va-	.	2f/	-tor
2G\	-tor	2B-\	-tor	2d\	-tor	.	[2g/	nos-
=92	=92	=92	=92	=92	=92	=92	=92	=92
2E-\	nos-	2c\	nos-	2e-i\	nos-	.	4g/]	.
.	.	.	.	.	.	.	4f/	.
2F\	.	2A/	.	1.c	.	.	1f	.
1C	.	1G	.	.	.	.	.	.
.	.	.	.	.	.	.	2e/	.
=93	=93	=93	=93	=93	=93	=93	=93	=93
0D	-ter	0F	ter	1A	ter	.	0f	-ter
.	.	.	.	1d	.	.	.	.
=94	=94	=94	=94	=94	=94	=94	=94	=94
1r	.	1r	.	1r	.	.	1r	.
[1E-	et	[1B-	et	[1G	et	.	[1g	et
=95	=95	=95	=95	=95	=95	=95	=95	=95
2E-\]	.	2B-\]	.	2G/]	.	.	2g/]	.
2E-i\	re-	2B-\	re-	2G/	re-	.	2g/	re-
2E-i\	-demp-	2B-\	-demp-	2G/	-demp-	.	2g/	-demp-
2E-i\	-ti-	2B-\	-ti-	2G/	-ti-	.	2g/	-ti-
=96	=96	=96	=96	=96	=96	=96	=96	=96
1E-i	-o-	1B-	-o	2.e-\	-o	.	1g	-o
.	.	.	.	4d\	.	.	.	.
2F\	mun-	2A/	mun-	2.c\	mun-	.	2f/	mun-
2C/	.	[2G/	.	.	.	.	[2e/	.
.	.	.	.	4B-\	.	.	.	.
=97	=97	=97	=97	=97	=97	=97	=97	=97
2D\	.	4G/]	.	2A/	.	.	4e/]	.
.	.	4F/	.	.	.	.	4d/	.
2BB-/	.	2D/	.	2G/	.	.	1d	.
1AA	-di,	1E	.	1A	-di,	.	.	.
.	.	.	.	.	.	.	2c#i/	.
=98	=98	=98	=98	=98	=98	=98	=98	=98
2r	.	[0D	-di,	2.F/	mun-	.	[0d	-di,
2D\	mun-	.	.	.	.	.	.	.
.	.	.	.	4G/	.	.	.	.
2.F\	.	.	.	2A/	.	.	.	.
.	.	.	.	2B-\	.	.	.	.
4G\	.	.	.	.	.	.	.	.
=99	=99	=99	=99	=99	=99	=99	=99	=99
2A\	.	0D_	.	2A/	.	.	0d_	.
2B-\	.	.	.	2.d\	.	.	.	.
2A\	.	.	.	.	.	.	.	.
.	.	.	.	4e\	.	.	.	.
[2d\	.	.	.	4f\	.	.	.	.
.	.	.	.	4g\	.	.	.	.
=100	=100	=100	=100	=100	=100	=100	=100	=100
2d\]	.	0D]	.	2a\	.	.	0d]	.
2B-\	.	.	.	1g	.	.	.	.
1A	-di,	.	.	.	.	.	.	.
.	.	.	.	2f#i\	.	.	.	.
=101	=101	=101	=101	=101	=101	=101	=101	=101
3%2GV	de-	0r	.	3%4gV	-di,	.	0r	.
3%2G	-pre-	.	.	.	.	.	.	.
3%2FZ	-ca-	.	.	3%2rZ	.	.	.	.
=102	=102	=102	=102	=102	=102	=102	=102	=102
3%2GV	-re	0r	.	3%2gV	de-	.	0r	.
3%2B-	fi-	.	.	3%2g	-pre-	.	.	.
3%2AZ	-li-	.	.	3%2fZ	-ca-	.	.	.
=103	=103	=103	=103	=103	=103	=103	=103	=103
3%4GV	-um	0r	.	3%2gV	-re	.	0r	.
.	.	.	.	3%2b-	fi-	.	.	.
3%2FZ	.	.	.	3%2aZ	-li-	.	.	.
=104	=104	=104	=104	=104	=104	=104	=104	=104
3%2GV	de-	3%2d	de-	3%4gV	-um,	.	0r	.
3%2B-	-pre-	3%2d	-pre-	.	.	.	.	.
3%2AZ	-ca-	3%2c	-ca-	3%2fZ	fi-	.	.	.
=105	=105	=105	=105	=105	=105	=105	=105	=105
3%2GV	-re	3%2d	-re	3%2gV	.	.	3%2ddV	de-
3%2D	fi-	3%2f	fi-	3%4aZ	-li-	.	3%2dd	-pre-
3%2AZ	-li-	3%2e	-li-	.	.	.	3%2ccZ	-ca-
=106	=106	=106	=106	=106	=106	=106	=106	=106
3%4DV	-um,	3%4dV	-um,	3%4fV	-um,	.	3%2ddV	-re
.	.	.	.	.	.	.	3%2ff	fi-
3%2rZ	.	3%2cZ	ut	3%2rZ	.	.	3%2eeZ	-li-
=107	=107	=107	=107	=107	=107	=107	=107	=107
0r	.	3%2dV	ex-	0r	.	.	3%4ddV	-um,
.	.	3%2f	-au-	.	.	.	.	.
.	.	3%2eZ	-di	.	.	.	3%2ccZ	ut
=108	=108	=108	=108	=108	=108	=108	=108	=108
0r	.	3%4dV	-re	0r	.	.	3%2ddV	ex-
.	.	.	.	.	.	.	3%2ff	-au-
.	.	3%2cZ	di-	.	.	.	3%2eeZ	-di-
=109	=109	=109	=109	=109	=109	=109	=109	=109
0r	.	3%2.fV	.	0r	.	.	3%2.ddV	-re
.	.	3e\	.	.	.	.	3cc\	.
.	.	3%2dZ	.	.	.	.	3b-\	.
.	.	.	.	.	.	.	3a/Z	.
=110	=110	=110	=110	=110	=110	=110	=110	=110
0r	.	3%2cV	.	0r	.	.	3%4aV	di-
.	.	3%4B-Z	-gne-	.	.	.	.	.
.	.	.	.	.	.	.	3%2gZ	-gne-
=111	=111	=111	=111	=111	=111	=111	=111	=111
0r	.	0A	-tur	0r	.	.	0a	-tur
=112	=112	=112	=112	=112	=112	=112	=112	=112
1r	.	1r	.	1r	.	.	1r	.
[1BB-	de-	[1d	de-	[1f	de-	.	[1b-	de-
=113	=113	=113	=113	=113	=113	=113	=113	=113
2BB-/]	.	2d\]	.	2f\]	.	.	2b-\]	.
2BB-/	-pre-	2d\	-pre-	2f\	-pre-	.	2b-\	-pre-
2BB-/	-ca-	2d\	-ca-	2f\	-ca-	.	2b-\	-ca-
2BB-/	-ti-	2d\	-ti-	2f\	-ti-	.	2b-\	-ti-
=114	=114	=114	=114	=114	=114	=114	=114	=114
2.F\	-o-	1c	-o-	1f	-o-	.	2cc\	-o-
.	.	.	.	.	.	.	1a	.
4E\	.	.	.	.	.	.	.	.
1D	-nem	1d	-nem	1f	-nem	.	.	.
.	.	.	.	.	.	.	2b-\	-nem
=115	=115	=115	=115	=115	=115	=115	=115	=115
1C	nos-	1e-	nos-	2g\	nos-	.	4cc\	nos-
.	.	.	.	.	.	.	4b-\	.
.	.	.	.	2c\	.	.	4a/	.
.	.	.	.	.	.	.	4g/	.
2BB-/	.	2d\	.	2.f\	.	.	2b-\	.
[2F\	.	[2c\	.	.	.	.	[2a/	.
.	.	.	.	4e\	.	.	.	.
=116	=116	=116	=116	=116	=116	=116	=116	=116
2F\]	.	2c\]	.	2f\	.	.	4a/]	.
.	.	.	.	.	.	.	4g/	.
2G\	.	2B-\	.	2.d\	.	.	1g	.
1D	.	1A	.	.	.	.	.	.
.	.	.	.	4c\	.	.	.	.
.	.	.	.	2d\	.	.	2f/	.
=117	=117	=117	=117	=117	=117	=117	=117	=117
2E-\	-tram	2G/	-tram,	2B-\	-tram,	.	2g/	-tram,
2D\	nos-	2d\	nos-	2.f\	nos-	.	1a	nos-
2.F\	.	2c\	.	.	.	.	.	.
.	.	.	.	4e\	.	.	.	.
.	.	2d\	.	2f\	.	.	2b-\	.
4E-i\	.	.	.	.	.	.	.	.
=118	=118	=118	=118	=118	=118	=118	=118	=118
1C	.	1e-i	.	2g\	.	.	4cc\	.
.	.	.	.	.	.	.	4b-\	.
.	.	.	.	2c\	.	.	4a/	.
.	.	.	.	.	.	.	4g/	.
2BB-/	.	2d\	.	2.f\	.	.	2b-\	.
[2F\	.	[2c\	.	.	.	.	[2a/	.
.	.	.	.	4e\	.	.	.	.
=119	=119	=119	=119	=119	=119	=119	=119	=119
2F\]	.	4c\]	.	2f\	.	.	2a/]	.
.	.	4B-\	.	.	.	.	.	.
2G\	.	4A/	.	2.d\	.	.	1g	.
.	.	4G/	.	.	.	.	.	.
1D	.	1A	.	.	.	.	.	.
.	.	.	.	4c\	.	.	.	.
.	.	.	.	2d\	.	.	2f#i/	.
=120	=120	=120	=120	=120	=120	=120	=120	=120
[0Gl	-tram.	[0Gl	-tram.	2B-\	.	.	[0gl	-tram.
.	.	.	.	1e-i	.	.	.	.
.	.	.	.	2d\	.	.	.	.
=121	=121	=121	=121	=121	=121	=121	=121	=121
0G]	.	0G]	.	0dl	-tram.	.	0g]	.
!!LO:LB:i:g=z
==	==	==	==	==	==	==	==	==
*-	*-	*-	*-	*-	*-	*-	*-	*-
!!!RDF**kern: V=start of tuplet marker
!!!RDF**kern: Z=end of tuplet marker
!!!RDF**kern: l=long note in original notation
!!!RDF**kern: i=editorial accidental
!!!ENC: Will Watson 11/07/2011
!!!END: 2011/07/11/
!!!EED: Jesse Rodin
!!!EEV: 2024/03/08/
!!attribution-level@Jos: 1 (secure, core group [checkmark])
!!!ONB: Translated from MusicXML and edited on 2011/10/17/ by Craig Sapp
!!muse2ps: C^@{COM}^i2I150v90,90,90,120c122z18l2700t130
